lib/preview/nrk-logo-preview-nrk-1-with-bg.svg

<svg width="55" height="24" viewBox="0 0 55 24" fill="none" xmlns="http://www.w3.org/2000/svg">
<rect width="55" height="24" fill="#0A2343"/>
<path d="M6.00427 18V6.00107H9.94146V18H6.00427ZM15.2981 7.91076L17.5623 18H13.2534L10.5498 6.00107H12.9664C13.5206 5.99388 14.0583 6.18923 14.4788 6.55037C14.8999 6.89636 15.1892 7.37668 15.2981 7.91076ZM18.1538 18V6.00107H22.091V18H18.1538ZM25.0647 10.5641C24.6405 10.5682 24.223 10.4572 23.8568 10.2429C23.4955 10.0341 23.1954 9.73394 22.9865 9.37258C22.7721 9.00631 22.661 8.58874 22.6652 8.1643C22.6604 7.74244 22.7715 7.32736 22.9865 6.96441C23.1976 6.60697 23.4974 6.31008 23.8568 6.1025C24.2231 5.88849 24.6405 5.7775 25.0647 5.78137C25.4865 5.77682 25.9014 5.88791 26.2645 6.1025C26.6203 6.3119 26.9169 6.60854 27.1263 6.96441C27.3411 7.32746 27.4522 7.74248 27.4476 8.1643C27.4515 8.58871 27.3405 9.00621 27.1263 9.37258C26.9191 9.73236 26.6222 10.0323 26.2645 10.2429C25.9014 10.458 25.4862 10.5691 25.0642 10.5641H25.0647ZM28.0559 18V6.00107H31.9934V18H28.0559ZM36.978 12.5582C36.9891 12.5699 37.0735 12.7079 37.2314 12.9723C37.3893 13.2366 37.5949 13.5747 37.8482 13.9863C38.1017 14.3977 38.3692 14.8342 38.6506 15.296C38.932 15.7577 39.1969 16.1943 39.4451 16.6058C39.6924 17.0172 39.974 17.4819 40.29 18H35.9641C35.6936 17.5606 35.4484 17.1634 35.2288 16.8085C35.0091 16.4537 34.7756 16.0706 34.5281 15.6593C34.2801 15.2485 34.0349 14.8485 33.7925 14.4594C33.5501 14.0704 33.3418 13.7296 33.1675 13.437C32.9926 13.1443 32.8714 12.9471 32.8039 12.8455C32.6368 12.5934 32.5379 12.3023 32.517 12.0005C32.5337 11.7109 32.6269 11.431 32.787 11.1891C32.8546 11.0764 32.9786 10.8764 33.1588 10.5891C33.3391 10.3018 33.5503 9.96104 33.7925 9.56671C34.0347 9.17238 34.2799 8.76959 34.5281 8.35836C34.7763 7.94713 35.0098 7.56122 35.2288 7.20069C35.4488 6.84053 35.6939 6.44057 35.9641 6.0008H40.29L36.9439 11.4595C36.8404 11.6215 36.782 11.8083 36.7749 12.0005C36.786 12.2023 36.8565 12.3963 36.9774 12.5582H36.978Z" fill="white"/>
<path d="M48.5627 5.99998C48.2923 6.13519 48.0359 6.26759 47.7937 6.39716C47.5515 6.52673 47.3149 6.64784 47.0839 6.76051C46.8529 6.87318 46.6191 6.98586 46.3825 7.09853C46.1459 7.2112 45.9037 7.31261 45.6558 7.40274C45.4079 7.49307 45.1431 7.58319 44.8615 7.67314L45.2333 9.1097C45.5713 9.0083 45.8784 8.90689 46.1546 8.80549C46.425 8.70662 46.69 8.59379 46.9487 8.46747C47.2022 8.34353 47.4557 8.20833 47.7092 8.06186L47.7177 8.05679V18H49.4756V6.00055L48.5627 5.99998Z" fill="#8BB5EB"/>
</svg>

<svg xmlns="http://www.w3.org/2000/svg" viewBox="0 0 55 24"><path fill="#0A2343" d="M0 0h55v24H0z"/><path fill="#fff" d="M6.004 18V6.001h3.937V18H6.004Zm9.294-10.09L17.562 18h-4.309L10.55 6.001h2.416a2.276 2.276 0 0 1 1.513.55c.42.345.71.826.82 1.36ZM18.154 18V6.001h3.937V18h-3.937Zm6.91-7.436a2.382 2.382 0 0 1-2.4-2.4 2.303 2.303 0 0 1 .323-1.2 2.412 2.412 0 0 1 3.278-.862c.355.21.652.507.861.862.215.363.326.778.322 1.2a2.4 2.4 0 0 1-1.183 2.079 2.301 2.301 0 0 1-1.2.321ZM28.057 18V6.001h3.937V18h-3.937Zm8.922-5.442c.011.012.096.15.253.414.158.265.364.603.617 1.014a309.436 309.436 0 0 1 1.597 2.62c.247.411.529.876.845 1.394h-4.326c-.27-.44-.516-.837-.735-1.192-.22-.354-.453-.737-.7-1.149-.249-.41-.494-.81-.737-1.2-.242-.389-.45-.73-.625-1.022-.174-.293-.296-.49-.363-.591a1.748 1.748 0 0 1-.287-.845c.017-.29.11-.57.27-.812.068-.113.192-.313.372-.6s.391-.628.633-1.022c.243-.395.488-.797.736-1.209l.7-1.157.736-1.2h4.326l-3.346 5.458a1.079 1.079 0 0 0-.17.542c.012.201.082.395.203.557h.001Z"/><path fill="#8BB5EB" d="M48.563 6c-.27.135-.527.268-.77.397-.242.13-.478.25-.71.364l-.7.338a8.229 8.229 0 0 1-.727.304c-.248.09-.513.18-.794.27l.371 1.437c.338-.102.645-.203.922-.305.27-.098.535-.211.794-.338.253-.123.507-.259.76-.405l.009-.005V18h1.758V6h-.913Z"/></svg>
